; generated by PrusaSlicer 2.6.0+win64 on 2023-09-05 at 19:45:16 UTC


;
;

;
;
; 

; external perimeters extrusion width = 0.45mm
; perimeters extrusion width = 0.45mm
; infill extrusion width = 0.45mm
; solid infill extrusion width = 0.45mm
; top infill extrusion width = 0.40mm
; first layer extrusion width = 0.42mm

M73 P0 R85
M201 X2500 Y2500 Z400 E5000 ; sets maximum accelerations, mm/sec^2
M203 X180 Y180 Z12 E80 ; sets maximum feedrates, mm / sec
M204 P1250 R1250 T2500 ; sets acceleration (P, T) and retract acceleration (R), mm/sec^2
M205 X8.00 Y8.00 Z2.00 E10.00 ; sets the jerk limits, mm/sec
M205 S0 T0 ; sets the minimum extruding and travel feed rate, mm/sec
;TYPE:Custom
M862.3 P "MINI" ; printer model check
G90 ; use absolute coordinates
M83 ; extruder relative mode
M104 S170 ; set extruder temp for bed leveling
M140 S60 ; set bed temp
M109 R170 ; wait for bed leveling temp
M190 S60 ; wait for bed temp
M204 T1250 ; set travel acceleration
G28 ; home all without mesh bed level
G29 ; mesh bed leveling 
M204 T2500 ; restore travel acceleration
M104 S235 ; set extruder temp
G92 E0
G1 Y-2 X179 F2400
G1 Z3 F720
M109 S235 ; wait for extruder temp

; intro line
G1 X170 F1000
G1 Z0.2 F720
G1 X110 E8 F900
G1 X40 E10 F700
G92 E0

M221 S95 ; set flow
G21 ; set units to millimeters
G90 ; use absolute coordinates
M83 ; use relative distances for extrusion
M900 K0.2 ; Filament gcode LA 1.5
; ; Filament gcode LA 1.0
M107
;LAYER_CHANGE
;Z:0.2
;HEIGHT:0.2
;BEFORE_LAYER_CHANGE
G92 E0.0
;0.2


G1 E-3.2 F4200
G1 Z.2 F720
;AFTER_LAYER_CHANGE
;0.2
G1 Z.4
G1 X64.362 Y64.196 F9000
G1 Z.2 F720
G1 E3.2 F2400
M204 P800
;TYPE:Skirt/Brim
;WIDTH:0.42
G1 F1200
G1 X67.015 Y61.809 E.1119
G1 X69.889 Y59.691 E.11194
G1 X72.956 Y57.866 E.1119
G1 X76.188 Y56.35 E.11193
G1 X79.552 Y55.158 E.1119
G1 X83.019 Y54.302 E.11197
G1 X86.55 Y53.79 E.11187
G1 X90.154 Y53.628 E.11311
G1 X93.681 Y53.813 E.11074
G1 X97.211 Y54.347 E.11194
G1 X100.671 Y55.226 E.11193
G1 X104.028 Y56.439 E.11192
G1 X107.249 Y57.976 E.1119
G1 X110.305 Y59.821 E.11193
G1 X113.165 Y61.956 E.1119
G1 X115.804 Y64.362 E.11197
G1 X118.191 Y67.015 E.1119
G1 X120.309 Y69.889 E.11194
G1 X122.134 Y72.956 E.1119
G1 X123.65 Y76.188 E.11193
G1 X124.842 Y79.552 E.1119
G1 X125.698 Y83.019 E.11197
G1 X126.21 Y86.55 E.11187
G1 X126.374 Y90.117 E.11196
G1 X126.187 Y93.681 E.1119
G1 X125.653 Y97.211 E.11194
G1 X124.774 Y100.671 E.11193
G1 X123.561 Y104.028 E.11192
G1 X122.024 Y107.249 E.1119
G1 X120.179 Y110.305 E.11193
G1 X118.044 Y113.165 E.1119
G1 X115.638 Y115.804 E.11197
G1 X112.985 Y118.191 E.1119
G1 X110.111 Y120.309 E.11194
G1 X107.044 Y122.134 E.1119
G1 X103.812 Y123.65 E.11193
G1 X100.448 Y124.842 E.1119
G1 X96.981 Y125.698 E.11197
G1 X93.45 Y126.21 E.11187
G1 X89.883 Y126.374 E.11196
G1 X86.319 Y126.187 E.1119
G1 X82.789 Y125.653 E.11194
G1 X79.329 Y124.774 E.11193
G1 X75.972 Y123.561 E.11192
G1 X72.751 Y122.024 E.1119
G1 X69.695 Y120.179 E.11193
G1 X66.835 Y118.044 E.1119
G1 X64.196 Y115.638 E.11197
G1 X61.809 Y112.985 E.1119
G1 X59.691 Y110.111 E.11194
G1 X57.866 Y107.044 E.1119
G1 X56.35 Y103.812 E.11193
G1 X55.158 Y100.448 E.1119
G1 X54.302 Y96.982 E.11194
G1 X53.79 Y93.45 E.1119
G1 X53.626 Y89.883 E.11196
G1 X53.813 Y86.319 E.1119
G1 X54.347 Y82.789 E.11194
G1 X55.226 Y79.329 E.11193
G1 X56.439 Y75.972 E.11192
G1 X57.976 Y72.751 E.1119
G1 X59.821 Y69.695 E.11193
G1 X61.956 Y66.835 E.1119
G1 X64.322 Y64.241 E.11008
M204 P1000
; printing object DCF77 Antenna Platform.stl id:0 copy 0
G1 E-2.24 F4200
;WIPE_START
G1 F7200
G1 X65.608 Y63.08 E-.96
;WIPE_END
G1 Z.4 F720
G1 X90.027 Y56.789 F9000
G1 Z.2 F720
G1 E3.2 F2400
M204 P800
;TYPE:Perimeter
;WIDTH:0.419999
G1 F1200
G1 X93.256 Y56.948 E.10137
G1 X96.479 Y57.426 E.10216
G1 X99.641 Y58.218 E.1022
G1 X102.709 Y59.316 E.10217
G1 X105.656 Y60.71 E.10222
G1 X108.451 Y62.385 E.10217
G1 X111.069 Y64.327 E.1022
G1 X113.485 Y66.515 E.1022
G1 X115.673 Y68.931 E.1022
G1 X117.615 Y71.549 E.1022
G1 X119.29 Y74.344 E.10217
G1 X120.684 Y77.291 E.10222
G1 X121.782 Y80.359 E.10217
M73 P0 R84
G1 X122.574 Y83.521 E.1022
G1 X123.052 Y86.744 E.10216
G1 X123.195 Y89.657 E.09144
G1 X123.204 Y90.158 E.01571
G1 X123.052 Y93.256 E.09725
G1 X122.574 Y96.479 E.10216
G1 X121.782 Y99.641 E.1022
G1 X120.684 Y102.709 E.10217
G1 X119.29 Y105.656 E.10222
G1 X117.615 Y108.451 E.10217
G1 X115.673 Y111.069 E.1022
G1 X113.485 Y113.485 E.1022
G1 X111.069 Y115.673 E.1022
G1 X108.451 Y117.615 E.1022
G1 X105.656 Y119.29 E.10217
G1 X102.709 Y120.684 E.10222
G1 X99.641 Y121.782 E.10217
G1 X96.479 Y122.574 E.1022
G1 X93.256 Y123.052 E.10216
G1 X90 Y123.212 E.10221
G1 X86.744 Y123.052 E.10221
G1 X83.521 Y122.574 E.10216
G1 X80.359 Y121.782 E.1022
G1 X77.291 Y120.684 E.10217
G1 X74.344 Y119.29 E.10222
G1 X71.549 Y117.615 E.10217
G1 X68.931 Y115.673 E.1022
G1 X66.515 Y113.485 E.1022
G1 X64.327 Y111.069 E.1022
G1 X62.385 Y108.451 E.1022
G1 X60.71 Y105.656 E.10217
G1 X59.316 Y102.709 E.10222
G1 X58.218 Y99.641 E.10217
G1 X57.426 Y96.479 E.1022
G1 X56.948 Y93.256 E.10216
G1 X56.788 Y90 E.10221
G1 X56.948 Y86.744 E.10221
G1 X57.426 Y83.521 E.10216
G1 X58.218 Y80.359 E.1022
G1 X59.316 Y77.291 E.10217
G1 X60.71 Y74.344 E.10222
G1 X62.385 Y71.549 E.10217
G1 X64.327 Y68.931 E.1022
G1 X66.515 Y66.515 E.1022
G1 X68.931 Y64.327 E.1022
G1 X71.549 Y62.385 E.1022
G1 X74.344 Y60.71 E.10217
G1 X77.291 Y59.316 E.10222
G1 X80.359 Y58.218 E.10217
G1 X83.521 Y57.426 E.1022
G1 X86.744 Y56.948 E.10216
G1 X89.967 Y56.792 E.10117
M204 P1000
G1 X90.019 Y56.412 F9000
M204 P800
;TYPE:External perimeter
G1 F1200
G1 X93.293 Y56.573 E.10278
G1 X96.553 Y57.056 E.10333
G1 X99.751 Y57.857 E.10337
G1 X102.854 Y58.967 E.10333
G1 X105.833 Y60.377 E.10334
G1 X108.661 Y62.071 E.10336
G1 X111.309 Y64.035 E.10337
G1 X113.752 Y66.248 E.10335
G1 X115.965 Y68.691 E.10335
G1 X117.929 Y71.339 E.10337
G1 X119.623 Y74.167 E.10336
G1 X121.033 Y77.146 E.10334
G1 X122.143 Y80.249 E.10333
G1 X122.944 Y83.447 E.10337
G1 X123.427 Y86.707 E.10333
G1 X123.572 Y89.638 E.09201
G1 X123.581 Y90.176 E.01687
G1 X123.427 Y93.293 E.09785
G1 X122.944 Y96.553 E.10333
G1 X122.143 Y99.751 E.10337
G1 X121.033 Y102.854 E.10333
G1 X119.623 Y105.833 E.10334
G1 X117.929 Y108.661 E.10336
G1 X115.965 Y111.309 E.10337
G1 X113.752 Y113.752 E.10335
G1 X111.309 Y115.965 E.10335
G1 X108.661 Y117.929 E.10337
G1 X105.833 Y119.623 E.10336
G1 X102.854 Y121.033 E.10334
G1 X99.751 Y122.143 E.10333
G1 X96.553 Y122.944 E.10337
G1 X93.293 Y123.427 E.10333
G1 X90 Y123.59 E.10338
G1 X86.707 Y123.427 E.10338
G1 X83.447 Y122.944 E.10333
G1 X80.249 Y122.143 E.10337
G1 X77.146 Y121.033 E.10333
G1 X74.167 Y119.623 E.10334
G1 X71.339 Y117.929 E.10336
G1 X68.691 Y115.965 E.10337
G1 X66.248 Y113.752 E.10335
G1 X64.035 Y111.309 E.10335
G1 X62.071 Y108.661 E.10337
G1 X60.377 Y105.833 E.10336
G1 X58.967 Y102.854 E.10334
G1 X57.857 Y99.751 E.10333
G1 X57.056 Y96.553 E.10337
G1 X56.573 Y93.293 E.10333
G1 X56.41 Y90 E.10338
G1 X56.573 Y86.707 E.10338
G1 X57.056 Y83.447 E.10333
G1 X57.857 Y80.249 E.10337
G1 X58.967 Y77.146 E.10333
G1 X60.377 Y74.167 E.10334
G1 X62.071 Y71.339 E.10336
G1 X64.035 Y68.691 E.10337
G1 X66.248 Y66.248 E.10335
G1 X68.691 Y64.035 E.10335
G1 X71.339 Y62.071 E.10337
G1 X74.167 Y60.377 E.10336
G1 X77.146 Y58.967 E.10334
G1 X80.249 Y57.857 E.10333
G1 X83.447 Y57.056 E.10337
G1 X86.707 Y56.573 E.10333
G1 X89.959 Y56.415 E.10208
M204 P1000
G1 X90.219 Y56.759 F9000
G1 E-2.24 F4200
;WIPE_START
G1 F7200
G1 X91.689 Y56.497 E-.96
;WIPE_END
G1 Z.4 F720
G1 X115.679 Y85.762 F9000
G1 Z.2 F720
G1 E3.2 F2400
M204 P800
;TYPE:Perimeter
G1 F1200
G1 X116.233 Y86.951 E.04113
G1 X116.638 Y88.426 E.04796
G1 X116.78 Y89.951 E.04802
G1 X116.655 Y91.477 E.04801
G1 X116.267 Y92.956 E.04794
G1 X115.629 Y94.347 E.04798
G1 X114.758 Y95.606 E.048
G1 X113.682 Y96.694 E.04798
G1 X112.433 Y97.578 E.04798
G1 X111.05 Y98.233 E.04798
G1 X109.574 Y98.638 E.04799
G1 X109.137 Y98.684 E.01378
G1 X107.953 Y98.779 E.03724
G1 X106.526 Y98.655 E.04491
G1 X105.046 Y98.267 E.04797
G1 X103.655 Y97.627 E.04801
G1 X102.322 Y96.694 E.05102
G1 X101.246 Y95.606 E.04798
G1 X100.375 Y94.347 E.048
G1 X99.736 Y92.956 E.048
G1 X99.349 Y91.477 E.04793
M73 P1 R84
G1 X99.224 Y90.049 E.04495
G1 X99.349 Y88.524 E.04798
G1 X99.736 Y87.044 E.04796
G1 X100.375 Y85.653 E.048
G1 X101.309 Y84.319 E.05106
G1 X102.397 Y83.243 E.04798
G1 X103.655 Y82.373 E.04796
G1 X105.046 Y81.733 E.04801
G1 X106.525 Y81.345 E.04794
G1 X107.953 Y81.22 E.04495
G1 X109.478 Y81.345 E.04798
G1 X110.958 Y81.733 E.04797
G1 X112.348 Y82.373 E.04798
G1 X113.682 Y83.306 E.05104
G1 X114.758 Y84.394 E.04798
G1 X115.579 Y85.568 E.04492
G1 X115.651 Y85.708 E.00494
M204 P1000
G1 X115.35 Y85.947 F9000
M204 P800
;TYPE:External perimeter
G1 F1200
G1 X115.892 Y87.11 E.04023
G1 X116.273 Y88.524 E.04592
G1 X116.404 Y89.984 E.04596
G1 X116.279 Y91.444 E.04594
G1 X115.903 Y92.859 E.04591
G1 X115.287 Y94.187 E.0459
G1 X114.449 Y95.389 E.04594
G1 X113.416 Y96.427 E.04592
G1 X112.217 Y97.269 E.04594
G1 X110.891 Y97.892 E.04594
G1 X109.477 Y98.273 E.04592
G1 X109.105 Y98.309 E.01172
G1 X107.986 Y98.403 E.03521
G1 X106.559 Y98.279 E.04491
G1 X105.143 Y97.903 E.04594
G1 X103.814 Y97.286 E.04594
G1 X102.588 Y96.427 E.04694
G1 X101.555 Y95.389 E.04592
G1 X100.717 Y94.188 E.04592
G1 X100.1 Y92.859 E.04594
G1 X99.725 Y91.444 E.0459
G1 X99.6 Y90.016 E.04495
G1 X99.725 Y88.556 E.04594
G1 X100.1 Y87.141 E.0459
G1 X100.717 Y85.812 E.04594
G1 X101.576 Y84.585 E.04696
G1 X102.614 Y83.552 E.04592
G1 X103.814 Y82.714 E.04589
G1 X105.143 Y82.097 E.04594
G1 X106.526 Y81.727 E.04489
G1 X107.986 Y81.596 E.04596
G1 X109.445 Y81.721 E.04591
G1 X110.86 Y82.097 E.04591
G1 X112.189 Y82.714 E.04594
G1 X113.416 Y83.573 E.04696
G1 X114.449 Y84.611 E.04592
G1 X115.27 Y85.784 E.04489
G1 X115.324 Y85.893 E.00381
M204 P1000
G1 X115.749 Y85.961 F9000
G1 E-2.24 F4200
;WIPE_START
G1 F7200
G1 X115.892 Y87.11 E-.74426
G1 X115.993 Y87.486 E-.21574
;WIPE_END
G1 Z.4 F720
G1 X94.285 Y62.226 F9000
G1 Z.2 F720
G1 E3.2 F2400
M204 P800
;TYPE:Perimeter
G1 F1200
G1 X94.289 Y89.213 E.84616
G1 X95.224 Y89.213 E.02932
G1 X95.528 Y89.301 E.00992
G1 X95.694 Y89.463 E.00727
G1 X95.79 Y89.779 E.01036
G1 X95.79 Y110.723 E.65668
G1 X95.736 Y110.964 E.00774
G1 X95.598 Y111.148 E.00721
G1 X95.474 Y111.231 E.00468
G1 X95.224 Y111.289 E.00805
G1 X94.289 Y111.289 E.02932
G1 X94.289 Y117.723 E.20173
G1 X94.251 Y117.926 E.00648
G1 X94.121 Y118.126 E.00748
G1 X93.873 Y118.269 E.00898
G1 X93.022 Y118.289 E.02669
G1 X86.277 Y118.289 E.21148
G1 X85.991 Y118.212 E.00929
G1 X85.8 Y118.029 E.00829
G1 X85.72 Y117.826 E.00684
G1 X85.711 Y117.723 E.00324
G1 X85.711 Y111.289 E.20173
G1 X84.777 Y111.289 E.02928
G1 X84.527 Y111.231 E.00805
G1 X84.297 Y111.023 E.00972
G1 X84.214 Y110.787 E.00784
G1 X84.211 Y110.723 E.00201
G1 X84.211 Y89.779 E.65668
G1 X84.307 Y89.463 E.01036
G1 X84.473 Y89.302 E.00725
G1 X84.777 Y89.213 E.00993
G1 X85.711 Y89.213 E.02928
G1 X85.711 Y62.276 E.84459
G1 X85.749 Y62.073 E.00648
G1 X85.879 Y61.873 E.00748
G1 X86.127 Y61.73 E.00898
G1 X86.977 Y61.71 E.02666
G1 X93.723 Y61.71 E.21152
G1 X94.009 Y61.787 E.00929
G1 X94.2 Y61.97 E.00829
G1 X94.277 Y62.167 E.00663
M204 P1000
G1 X93.912 Y62.276 F9000
M204 P800
;TYPE:External perimeter
G1 F1200
G1 X93.912 Y89.59 E.85641
G1 X95.224 Y89.59 E.04114
G1 X95.371 Y89.66 E.0051
G1 X95.413 Y89.8 E.00458
G1 X95.413 Y110.726 E.65612
G1 X95.349 Y110.865 E.0048
G1 X95.224 Y110.912 E.00419
G1 X93.912 Y110.912 E.04114
G1 X93.912 Y117.727 E.21368
G1 X93.856 Y117.858 E.00447
G1 X93.723 Y117.912 E.0045
G1 X86.277 Y117.912 E.23346
G1 X86.144 Y117.858 E.0045
G1 X86.088 Y117.723 E.00458
G1 X86.088 Y110.912 E.21355
G1 X84.777 Y110.912 E.04111
G1 X84.63 Y110.842 E.0051
G1 X84.588 Y110.723 E.00396
G1 X84.588 Y89.779 E.65668
G1 X84.64 Y89.648 E.00442
G1 X84.777 Y89.59 E.00466
G1 X86.088 Y89.59 E.04111
G1 X86.088 Y62.272 E.85654
G1 X86.144 Y62.141 E.00447
G1 X86.277 Y62.087 E.0045
G1 X93.723 Y62.087 E.23346
G1 X93.856 Y62.141 E.0045
G1 X93.889 Y62.22 E.00268
M204 P1000
G1 X94.298 Y62.379 F9000
G1 E-2.24 F4200
;WIPE_START
G1 F7200
G1 X93.89 Y63.952 E-.96
;WIPE_END
G1 Z.4 F720
G1 X79.609 Y85.626 F9000
G1 Z.2 F720
G1 E3.2 F2400
M204 P800
;TYPE:Perimeter
G1 F1200
G1 X80.23 Y86.951 E.04588
G1 X80.634 Y88.427 E.04798
G1 X80.776 Y89.951 E.04799
G1 X80.634 Y91.573 E.05105
G1 X80.23 Y93.049 E.04798
G1 X79.575 Y94.432 E.04798
G1 X78.754 Y95.606 E.04492
G1 X77.678 Y96.694 E.04798
G1 X76.43 Y97.578 E.04795
G1 X74.954 Y98.267 E.05107
G1 X73.474 Y98.655 E.04797
G1 X71.949 Y98.779 E.04797
G1 X70.523 Y98.655 E.04488
G1 X69.583 Y98.412 E.03044
G1 X69.042 Y98.267 E.01756
G1 X67.652 Y97.627 E.04798
G1 X66.393 Y96.757 E.04798
G1 X65.305 Y95.681 E.04798
G1 X64.421 Y94.432 E.04798
G1 X63.767 Y93.049 E.04797
G1 X63.345 Y91.476 E.05106
G1 X63.221 Y89.951 E.04797
G1 X63.345 Y88.524 E.04491
G1 X63.494 Y87.935 E.01905
G1 X63.767 Y86.951 E.03202
G1 X64.371 Y85.653 E.04489
G1 X65.242 Y84.394 E.048
G1 X66.318 Y83.306 E.04798
G1 X67.567 Y82.422 E.04798
G1 X68.95 Y81.767 E.04798
G1 X70.425 Y81.362 E.04796
G1 X72.047 Y81.22 E.05105
G1 X73.571 Y81.362 E.04799
G1 X75.047 Y81.767 E.04799
G1 X76.345 Y82.373 E.04491
G1 X77.603 Y83.243 E.04796
G1 X78.691 Y84.319 E.04798
G1 X79.579 Y85.574 E.0482
M204 P1000
G1 X79.291 Y85.831 F9000
M204 P800
;TYPE:External perimeter
G1 F1200
G1 X79.889 Y87.11 E.04427
G1 X80.27 Y88.524 E.04592
G1 X80.4 Y89.984 E.04596
G1 X80.275 Y91.444 E.04594
G1 X79.9 Y92.859 E.0459
G1 X79.283 Y94.188 E.04594
G1 X78.424 Y95.415 E.04696
G1 X77.386 Y96.448 E.04592
G1 X76.186 Y97.286 E.04589
G1 X74.857 Y97.903 E.04594
G1 X73.441 Y98.279 E.04594
G1 X72.014 Y98.403 E.04491
G1 X70.556 Y98.279 E.04588
G1 X69.14 Y97.903 E.04594
G1 X67.811 Y97.286 E.04594
G1 X66.61 Y96.448 E.04592
G1 X65.572 Y95.415 E.04592
G1 X64.73 Y94.216 E.04594
G1 X64.108 Y92.89 E.04592
G1 X63.721 Y91.443 E.04696
G1 X63.597 Y89.984 E.04591
G1 X63.721 Y88.557 E.04491
G1 X63.858 Y88.033 E.01698
G1 X64.108 Y87.11 E.02998
G1 X64.713 Y85.813 E.04487
G1 X65.551 Y84.611 E.04594
G1 X66.584 Y83.573 E.04592
G1 X67.783 Y82.731 E.04594
G1 X69.109 Y82.108 E.04594
G1 X70.523 Y81.727 E.04592
G1 X72.014 Y81.596 E.04693
G1 X73.474 Y81.727 E.04596
G1 X74.888 Y82.108 E.04592
G1 X76.214 Y82.731 E.04594
G1 X77.412 Y83.573 E.04591
G1 X78.424 Y84.585 E.04487
G1 X79.262 Y85.778 E.04571
M204 P1000
G1 X79.691 Y85.831 F9000
G1 E-2.24 F4200
;WIPE_START
G1 F7200
G1 X79.889 Y87.11 E-.81584
G1 X79.957 Y87.361 E-.14416
;WIPE_END
G1 Z.4 F720
G1 X110.942 Y64.374 F9000
G1 Z.2 F720
G1 E3.2 F2400
M204 P800
;TYPE:Solid infill
;WIDTH:0.421412
G1 F1200
G1 X113.292 Y66.723 E.10457
G1 X115.454 Y69.11 E.10136
G1 X116.345 Y70.312 E.04709
G1 X109.688 Y63.654 E.29631
G1 X108.294 Y62.621 E.0546
G1 X107.856 Y62.358 E.01608
G1 X117.642 Y72.144 E.43555
G1 X118.442 Y73.479 E.04898
G1 X106.521 Y61.558 E.53058
G1 X105.522 Y60.96 E.03664
G1 X105.266 Y60.838 E.00892
G1 X119.162 Y74.734 E.61848
G1 X119.642 Y75.75 E.03536
G1 X104.25 Y60.358 E.68506
G1 X103.234 Y59.877 E.03538
G1 X120.123 Y76.766 E.75169
G1 X120.422 Y77.399 E.02203
G1 X120.535 Y77.713 E.0105
G1 X102.287 Y59.465 E.81218
G1 X101.453 Y59.167 E.02787
G1 X120.833 Y78.547 E.86256
G1 X121.131 Y79.381 E.02787
G1 X100.619 Y58.869 E.91294
G1 X99.786 Y58.57 E.02785
G1 X121.43 Y80.214 E.96333
G1 X121.511 Y80.441 E.00759
G1 X121.641 Y80.961 E.01687
G1 X99.039 Y58.359 E1.00596
G1 X98.325 Y58.18 E.02317
G1 X121.82 Y81.675 E1.04571
G1 X121.999 Y82.389 E.02317
M73 P1 R83
G1 X97.611 Y58.001 E1.08546
G1 X96.897 Y57.822 E.02317
G1 X122.178 Y83.103 E1.1252
G1 X122.296 Y83.576 E.01534
G1 X122.328 Y83.789 E.00678
G1 X96.211 Y57.672 E1.16241
G1 X95.583 Y57.579 E.01998
G1 X122.421 Y84.417 E1.1945
G1 X122.514 Y85.045 E.01998
G1 X94.955 Y57.486 E1.22659
G1 X94.326 Y57.393 E.02001
G1 X122.607 Y85.674 E1.25872
G1 X122.7 Y86.302 E.01998
M73 P2 R83
G1 X93.698 Y57.3 E1.29081
G1 X93.086 Y57.223 E.01941
G1 X122.777 Y86.914 E1.32148
G1 X122.805 Y87.477 E.01774
G1 X92.523 Y57.195 E1.34778
G1 X91.96 Y57.168 E.01774
G1 X122.832 Y88.04 E1.37404
G1 X122.86 Y88.603 E.01774
G1 X91.397 Y57.14 E1.40035
G1 X90.834 Y57.112 E.01774
G1 X122.888 Y89.166 E1.42665
