; generated by PrusaSlicer 2.6.0+win64 on 2023-09-05 at 16:23:09 UTC


;
;

;
;
; 

; external perimeters extrusion width = 0.45mm
; perimeters extrusion width = 0.45mm
; infill extrusion width = 0.45mm
; solid infill extrusion width = 0.45mm
; top infill extrusion width = 0.40mm
; first layer extrusion width = 0.42mm

; external perimeters extrusion width = 0.45mm
; perimeters extrusion width = 0.45mm
; infill extrusion width = 0.45mm
; solid infill extrusion width = 0.45mm
; top infill extrusion width = 0.40mm
; first layer extrusion width = 0.42mm

; external perimeters extrusion width = 0.45mm
; perimeters extrusion width = 0.45mm
; infill extrusion width = 0.45mm
; solid infill extrusion width = 0.45mm
; top infill extrusion width = 0.40mm
; first layer extrusion width = 0.42mm

; external perimeters extrusion width = 0.45mm
; perimeters extrusion width = 0.45mm
; infill extrusion width = 0.45mm
; solid infill extrusion width = 0.45mm
; top infill extrusion width = 0.40mm
; first layer extrusion width = 0.42mm

; external perimeters extrusion width = 0.45mm
; perimeters extrusion width = 0.45mm
; infill extrusion width = 0.45mm
; solid infill extrusion width = 0.45mm
; top infill extrusion width = 0.40mm
; first layer extrusion width = 0.42mm

; external perimeters extrusion width = 0.45mm
; perimeters extrusion width = 0.45mm
; infill extrusion width = 0.45mm
; solid infill extrusion width = 0.45mm
; top infill extrusion width = 0.40mm
; first layer extrusion width = 0.42mm

; external perimeters extrusion width = 0.45mm
; perimeters extrusion width = 0.45mm
; infill extrusion width = 0.45mm
; solid infill extrusion width = 0.45mm
; top infill extrusion width = 0.40mm
; first layer extrusion width = 0.42mm

; external perimeters extrusion width = 0.45mm
; perimeters extrusion width = 0.45mm
; infill extrusion width = 0.45mm
; solid infill extrusion width = 0.45mm
; top infill extrusion width = 0.40mm
; first layer extrusion width = 0.42mm

; external perimeters extrusion width = 0.45mm
; perimeters extrusion width = 0.45mm
; infill extrusion width = 0.45mm
; solid infill extrusion width = 0.45mm
; top infill extrusion width = 0.40mm
; first layer extrusion width = 0.42mm

; external perimeters extrusion width = 0.45mm
; perimeters extrusion width = 0.45mm
; infill extrusion width = 0.45mm
; solid infill extrusion width = 0.45mm
; top infill extrusion width = 0.40mm
; first layer extrusion width = 0.42mm

; external perimeters extrusion width = 0.45mm
; perimeters extrusion width = 0.45mm
; infill extrusion width = 0.45mm
; solid infill extrusion width = 0.45mm
; top infill extrusion width = 0.40mm
; first layer extrusion width = 0.42mm

; external perimeters extrusion width = 0.45mm
; perimeters extrusion width = 0.45mm
; infill extrusion width = 0.45mm
; solid infill extrusion width = 0.45mm
; top infill extrusion width = 0.40mm
; first layer extrusion width = 0.42mm

; external perimeters extrusion width = 0.45mm
; perimeters extrusion width = 0.45mm
; infill extrusion width = 0.45mm
; solid infill extrusion width = 0.45mm
; top infill extrusion width = 0.40mm
; first layer extrusion width = 0.42mm

; external perimeters extrusion width = 0.45mm
; perimeters extrusion width = 0.45mm
; infill extrusion width = 0.45mm
; solid infill extrusion width = 0.45mm
; top infill extrusion width = 0.40mm
; first layer extrusion width = 0.42mm

M73 P0 R30
M201 X2500 Y2500 Z400 E5000 ; sets maximum accelerations, mm/sec^2
M203 X180 Y180 Z12 E80 ; sets maximum feedrates, mm / sec
M204 P1250 R1250 T2500 ; sets acceleration (P, T) and retract acceleration (R), mm/sec^2
M205 X8.00 Y8.00 Z2.00 E10.00 ; sets the jerk limits, mm/sec
M205 S0 T0 ; sets the minimum extruding and travel feed rate, mm/sec
;TYPE:Custom
M862.3 P "MINI" ; printer model check
G90 ; use absolute coordinates
M83 ; extruder relative mode
M104 S170 ; set extruder temp for bed leveling
M140 S60 ; set bed temp
M109 R170 ; wait for bed leveling temp
M190 S60 ; wait for bed temp
M204 T1250 ; set travel acceleration
G28 ; home all without mesh bed level
G29 ; mesh bed leveling 
M204 T2500 ; restore travel acceleration
M104 S235 ; set extruder temp
G92 E0
G1 Y-2 X179 F2400
G1 Z3 F720
M109 S235 ; wait for extruder temp

; intro line
G1 X170 F1000
G1 Z0.2 F720
G1 X110 E8 F900
G1 X40 E10 F700
G92 E0

M221 S95 ; set flow
G21 ; set units to millimeters
G90 ; use absolute coordinates
M83 ; use relative distances for extrusion
M900 K0.2 ; Filament gcode LA 1.5
; ; Filament gcode LA 1.0
M107
;LAYER_CHANGE
;Z:0.2
;HEIGHT:0.2
;BEFORE_LAYER_CHANGE
G92 E0.0
;0.2


G1 E-3.2 F4200
G1 Z.2 F720
;AFTER_LAYER_CHANGE
;0.2
G1 Z.4
G1 X52.192 Y46.478 F9000
G1 Z.2 F720
G1 E3.2 F2400
M204 P800
;TYPE:Skirt/Brim
;WIDTH:0.42
G1 F1200
G1 X53.87 Y45.726 E.05765
G1 X81.8 Y45.055 E.87598
G1 X88.056 Y45.062 E.19615
G1 X111.174 Y47.011 E.72742
G1 X112.833 Y47.898 E.05898
M73 P1 R30
G1 X125.666 Y63.996 E.6455
G1 X126.183 Y65.398 E.04685
G1 X127.95 Y117.913 E1.6475
G1 X127.95 Y127.913 E.31354
G1 X127.558 Y129.22 E.04278
G1 X126.513 Y130.097 E.04277
G1 X125.664 Y130.288 E.02729
G1 X79.922 Y132.047 E1.43527
G1 X73.831 Y132.048 E.19098
G1 X51.918 Y130.572 E.68862
G1 X50.64 Y130.094 E.04278
G1 X49.708 Y128.38 E.06117
G1 X46.593 Y87.096 E1.29811
G1 X46.587 Y76.917 E.31916
G1 X51.585 Y47.699 E.92942
G1 X52.166 Y46.531 E.0409
M204 P1000
; printing object DCF77 TEST Pfropfen vertikal.stl id:7 copy 0
G1 E-2.24 F4200
;WIPE_START
G1 F7200
G1 X53.732 Y45.791 E-.96
;WIPE_END
G1 Z.4 F720
G1 X123.02 Y74.69 F9000
G1 Z.2 F720
G1 E3.2 F2400
M204 P800
;TYPE:Perimeter
;WIDTH:0.419999
G1 F1200
G1 X118.594 Y74.69 E.13877
G1 X118.594 Y66.265 E.26416
G1 X123.02 Y66.265 E.13877
G1 X123.02 Y74.63 E.26228
M204 P1000
G1 X123.397 Y75.068 F9000
M204 P800
;TYPE:External perimeter
G1 F1200
G1 X118.217 Y75.068 E.16241
G1 X118.217 Y65.888 E.28783
G1 X123.397 Y65.888 E.16241
G1 X123.397 Y75.008 E.28595
M204 P1000
G1 X123.022 Y74.929 F9000
G1 E-2.24 F4200
;WIPE_START
G1 F7200
G1 X121.665 Y75.028 E-.96
;WIPE_END
G1 Z.4 F720
G1 X122.131 Y66.378 F9000
G1 Z.2 F720
G1 E3.2 F2400
M204 P800
;TYPE:Solid infill
;WIDTH:0.426436
G1 F1200
G1 X122.737 Y66.984 E.02733
G1 X122.737 Y67.526 E.01728
G1 X121.758 Y66.547 E.04415
G1 X121.216 Y66.547 E.01728
G1 X122.737 Y68.069 E.06862
G1 X122.737 Y68.611 E.01728
G1 X120.674 Y66.547 E.09306
G1 X120.131 Y66.547 E.01732
G1 X122.737 Y69.153 E.11753
G1 X122.737 Y69.696 E.01732
G1 X119.589 Y66.547 E.14199
G1 X119.046 Y66.547 E.01732
G1 X122.737 Y70.238 E.16646
G1 X122.737 Y70.781 E.01732
G1 X118.877 Y66.92 E.1741
G1 X118.877 Y67.463 E.01732
M73 P2 R30
G1 X122.737 Y71.323 E.17408
G1 X122.737 Y71.865 E.01728
G1 X118.877 Y68.005 E.17408
G1 X118.877 Y68.547 E.01728
G1 X122.737 Y72.408 E.1741
G1 X122.737 Y72.95 E.01728
G1 X118.877 Y69.09 E.17408
G1 X118.877 Y69.632 E.01728
G1 X122.737 Y73.492 E.17408
G1 X122.737 Y74.035 E.01732
G1 X118.877 Y70.175 E.17408
G1 X118.877 Y70.717 E.01728
G1 X122.568 Y74.408 E.16646
G1 X122.025 Y74.408 E.01732
G1 X118.877 Y71.259 E.14199
G1 X118.877 Y71.802 E.01732
G1 X121.483 Y74.408 E.11753
G1 X120.941 Y74.408 E.01728
G1 X118.877 Y72.344 E.09308
G1 X118.877 Y72.886 E.01728
G1 X120.398 Y74.408 E.06862
G1 X119.856 Y74.408 E.01728
G1 X118.877 Y73.429 E.04415
G1 X118.877 Y73.971 E.01728
G1 X119.483 Y74.577 E.02733
M204 P1000
; stop printing object DCF77 TEST Pfropfen vertikal.stl id:7 copy 0
; printing object DCF77 TEST Pfropfen vertikal.stl id:8 copy 0
G1 E-2.24 F4200
;WIPE_START
G1 F7200
G1 X118.877 Y73.971 E-.47493
G1 X118.877 Y73.429 E-.30036
G1 X119.113 Y73.665 E-.18471
;WIPE_END
G1 Z.4 F720
G1 X110.187 Y58.593 F9000
G1 Z.2 F720
G1 E3.2 F2400
M204 P800
;TYPE:Perimeter
;WIDTH:0.419999
G1 F1200
G1 X105.761 Y58.593 E.13877
G1 X105.761 Y50.167 E.26419
G1 X110.187 Y50.167 E.13877
G1 X110.187 Y58.533 E.26231
M204 P1000
G1 X110.564 Y58.97 F9000
M204 P800
;TYPE:External perimeter
G1 F1200
G1 X105.384 Y58.97 E.16241
G1 X105.384 Y49.79 E.28783
G1 X110.564 Y49.79 E.16241
G1 X110.564 Y58.91 E.28595
M204 P1000
G1 X110.189 Y58.832 F9000
G1 E-2.24 F4200
;WIPE_START
G1 F7200
G1 X108.832 Y58.93 E-.96
;WIPE_END
G1 Z.4 F720
G1 X109.298 Y50.28 F9000
G1 Z.2 F720
G1 E3.2 F2400
M204 P800
;TYPE:Solid infill
;WIDTH:0.426436
G1 F1200
G1 X109.904 Y50.886 E.02733
G1 X109.904 Y51.429 E.01732
G1 X108.926 Y50.45 E.04413
G1 X108.383 Y50.45 E.01732
G1 X109.904 Y51.971 E.06859
G1 X109.904 Y52.513 E.01728
G1 X107.841 Y50.45 E.09304
G1 X107.298 Y50.45 E.01732
G1 X109.904 Y53.056 E.11753
G1 X109.904 Y53.598 E.01728
G1 X106.756 Y50.45 E.14197
G1 X106.214 Y50.45 E.01728
G1 X109.904 Y54.141 E.16644
G1 X109.904 Y54.683 E.01728
G1 X106.044 Y50.823 E.17408
G1 X106.044 Y51.365 E.01728
G1 X109.904 Y55.225 E.17408
G1 X109.904 Y55.768 E.01732
G1 X106.044 Y51.907 E.1741
G1 X106.044 Y52.45 E.01732
G1 X109.904 Y56.31 E.17408
G1 X109.904 Y56.852 E.01728
G1 X106.044 Y52.992 E.17408
G1 X106.044 Y53.535 E.01732
G1 X109.904 Y57.395 E.17408
G1 X109.904 Y57.937 E.01728
G1 X106.044 Y54.077 E.17408
G1 X106.044 Y54.619 E.01728
G1 X109.735 Y58.31 E.16646
G1 X109.193 Y58.31 E.01728
G1 X106.044 Y55.162 E.14199
G1 X106.044 Y55.704 E.01728
G1 X108.65 Y58.31 E.11753
G1 X108.108 Y58.31 E.01728
G1 X106.044 Y56.246 E.09308
G1 X106.044 Y56.789 E.01732
G1 X107.565 Y58.31 E.06859
G1 X107.023 Y58.31 E.01728
G1 X106.044 Y57.331 E.04415
G1 X106.044 Y57.874 E.01732
G1 X106.65 Y58.48 E.02733
M204 P1000
; stop printing object DCF77 TEST Pfropfen vertikal.stl id:8 copy 0
; printing object DCF77 TEST Pfropfen vertikal.stl id:12 copy 0
G1 E-2.24 F4200
;WIPE_START
G1 F7200
G1 X106.044 Y57.874 E-.47493
G1 X106.044 Y57.331 E-.30091
G1 X106.279 Y57.566 E-.18416
;WIPE_END
G1 Z.4 F720
G1 X87.07 Y56.644 F9000
G1 Z.2 F720
G1 E3.2 F2400
M204 P800
;TYPE:Perimeter
;WIDTH:0.419999
G1 F1200
G1 X82.644 Y56.644 E.13877
G1 X82.644 Y48.218 E.26419
G1 X87.07 Y48.218 E.13877
G1 X87.07 Y56.584 E.26231
M204 P1000
G1 X87.447 Y57.021 F9000
M204 P800
;TYPE:External perimeter
G1 F1200
G1 X82.267 Y57.021 E.16241
G1 X82.267 Y47.841 E.28783
G1 X87.447 Y47.841 E.16241
G1 X87.447 Y56.961 E.28595
M204 P1000
G1 X87.071 Y56.883 F9000
G1 E-2.24 F4200
;WIPE_START
G1 F7200
G1 X85.715 Y56.981 E-.96
;WIPE_END
G1 Z.4 F720
G1 X86.181 Y48.331 F9000
G1 Z.2 F720
G1 E3.2 F2400
M204 P800
;TYPE:Solid infill
;WIDTH:0.426436
G1 F1200
G1 X86.787 Y48.937 E.02733
G1 X86.787 Y49.48 E.01732
G1 X85.808 Y48.501 E.04415
G1 X85.266 Y48.501 E.01728
G1 X86.787 Y50.022 E.06859
G1 X86.787 Y50.564 E.01728
G1 X84.723 Y48.501 E.09306
G1 X84.181 Y48.501 E.01728
G1 X86.787 Y51.107 E.11753
G1 X86.787 Y51.649 E.01728
G1 X83.638 Y48.501 E.14199
G1 X83.096 Y48.501 E.01728
G1 X86.787 Y52.192 E.16646
G1 X86.787 Y52.734 E.01728
G1 X82.927 Y48.874 E.17408
G1 X82.927 Y49.416 E.01728
G1 X86.787 Y53.276 E.17408
G1 X86.787 Y53.819 E.01732
G1 X82.927 Y49.958 E.1741
G1 X82.927 Y50.501 E.01732
G1 X86.787 Y54.361 E.17408
G1 X86.787 Y54.903 E.01728
G1 X82.927 Y51.043 E.17408
G1 X82.927 Y51.586 E.01732
G1 X86.787 Y55.446 E.17408
G1 X86.787 Y55.988 E.01728
M73 P3 R30
G1 X82.927 Y52.128 E.17408
G1 X82.927 Y52.67 E.01728
G1 X86.617 Y56.361 E.16644
G1 X86.075 Y56.361 E.01728
G1 X82.927 Y53.213 E.14197
G1 X82.927 Y53.755 E.01728
G1 X85.533 Y56.361 E.11753
G1 X84.99 Y56.361 E.01732
G1 X82.927 Y54.297 E.09306
G1 X82.927 Y54.84 E.01732
G1 X84.448 Y56.361 E.06859
G1 X83.905 Y56.361 E.01732
G1 X82.927 Y55.382 E.04413
G1 X82.927 Y55.925 E.01732
G1 X83.533 Y56.531 E.02733
M204 P1000
; stop printing object DCF77 TEST Pfropfen vertikal.stl id:12 copy 0
; printing object DCF77 TEST Pfropfen vertikal.stl id:10 copy 0
G1 E-2.24 F4200
;WIPE_START
G1 F7200
G1 X82.927 Y55.925 E-.47493
G1 X82.927 Y55.382 E-.30091
G1 X83.162 Y55.617 E-.18416
;WIPE_END
G1 Z.4 F720
G1 X59.14 Y57.316 F9000
G1 Z.2 F720
G1 E3.2 F2400
M204 P800
;TYPE:Perimeter
;WIDTH:0.419999
G1 F1200
G1 X54.714 Y57.316 E.13877
G1 X54.714 Y48.89 E.26419
G1 X59.14 Y48.89 E.13877
M73 P3 R29
G1 X59.14 Y57.256 E.26231
M204 P1000
G1 X59.517 Y57.693 F9000
M204 P800
;TYPE:External perimeter
G1 F1200
G1 X54.337 Y57.693 E.16241
G1 X54.337 Y48.513 E.28783
G1 X59.517 Y48.513 E.16241
G1 X59.517 Y57.633 E.28595
M204 P1000
G1 X59.142 Y57.555 F9000
G1 E-2.24 F4200
;WIPE_START
G1 F7200
G1 X57.785 Y57.653 E-.96
;WIPE_END
G1 Z.4 F720
G1 X58.251 Y49.003 F9000
G1 Z.2 F720
G1 E3.2 F2400
M204 P800
;TYPE:Solid infill
;WIDTH:0.426436
G1 F1200
G1 X58.857 Y49.609 E.02733
G1 X58.857 Y50.152 E.01732
G1 X57.878 Y49.173 E.04415
G1 X57.336 Y49.173 E.01728
G1 X58.857 Y50.694 E.06859
G1 X58.857 Y51.236 E.01728
G1 X56.794 Y49.173 E.09304
G1 X56.251 Y49.173 E.01732
G1 X58.857 Y51.779 E.11753
G1 X58.857 Y52.321 E.01728
G1 X55.709 Y49.173 E.14197
G1 X55.167 Y49.173 E.01728
G1 X58.857 Y52.863 E.16641
G1 X58.857 Y53.406 E.01732
G1 X54.997 Y49.546 E.17408
G1 X54.997 Y50.088 E.01728
G1 X58.857 Y53.948 E.17408
G1 X58.857 Y54.49 E.01728
G1 X54.997 Y50.63 E.17408
G1 X54.997 Y51.173 E.01732
G1 X58.857 Y55.033 E.17408
G1 X58.857 Y55.575 E.01728
G1 X54.997 Y51.715 E.17408
G1 X54.997 Y52.257 E.01728
G1 X58.857 Y56.118 E.1741
G1 X58.857 Y56.66 E.01728
G1 X54.997 Y52.8 E.17408
G1 X54.997 Y53.342 E.01728
G1 X58.688 Y57.033 E.16646
G1 X58.145 Y57.033 E.01732
G1 X54.997 Y53.885 E.14197
G1 X54.997 Y54.427 E.01728
G1 X57.603 Y57.033 E.11753
G1 X57.061 Y57.033 E.01728
G1 X54.997 Y54.969 E.09308
G1 X54.997 Y55.512 E.01732
G1 X56.518 Y57.033 E.06859
G1 X55.976 Y57.033 E.01728
G1 X54.997 Y56.054 E.04415
G1 X54.997 Y56.596 E.01728
G1 X55.603 Y57.202 E.02733
M204 P1000
; stop printing object DCF77 TEST Pfropfen vertikal.stl id:10 copy 0
; printing object DCF77 TEST Pfropfen vertikal.stl id:11 copy 0
G1 E-2.24 F4200
;WIPE_START
G1 F7200
G1 X54.997 Y56.596 E-.47493
G1 X54.997 Y56.054 E-.30036
G1 X55.233 Y56.29 E-.18471
;WIPE_END
G1 Z.4 F720
G1 X54.177 Y86.13 F9000
G1 Z.2 F720
G1 E3.2 F2400
M204 P800
;TYPE:Perimeter
;WIDTH:0.419999
G1 F1200
G1 X49.751 Y86.13 E.13877
G1 X49.751 Y77.704 E.26419
G1 X54.177 Y77.704 E.13877
G1 X54.177 Y86.07 E.26231
M204 P1000
G1 X54.554 Y86.507 F9000
M204 P800
;TYPE:External perimeter
G1 F1200
G1 X49.374 Y86.507 E.16241
G1 X49.374 Y77.327 E.28783
G1 X54.554 Y77.327 E.16241
G1 X54.554 Y86.447 E.28595
M204 P1000
G1 X54.178 Y86.369 F9000
G1 E-2.24 F4200
;WIPE_START
G1 F7200
G1 X52.822 Y86.467 E-.96
;WIPE_END
G1 Z.4 F720
G1 X53.288 Y77.817 F9000
G1 Z.2 F720
G1 E3.2 F2400
M204 P800
;TYPE:Solid infill
;WIDTH:0.426436
G1 F1200
G1 X53.894 Y78.424 E.02735
G1 X53.894 Y78.966 E.01728
G1 X52.915 Y77.987 E.04415
G1 X52.373 Y77.987 E.01728
G1 X53.894 Y79.508 E.06859
G1 X53.894 Y80.051 E.01732
G1 X51.83 Y77.987 E.09308
G1 X51.288 Y77.987 E.01728
G1 X53.894 Y80.593 E.11753
G1 X53.894 Y81.135 E.01728
G1 X50.745 Y77.987 E.14199
G1 X50.203 Y77.987 E.01728
G1 X53.894 Y81.678 E.16646
G1 X53.894 Y82.22 E.01728
G1 X50.034 Y78.36 E.17408
G1 X50.034 Y78.902 E.01728
G1 X53.894 Y82.763 E.1741
G1 X53.894 Y83.305 E.01728
G1 X50.034 Y79.445 E.17408
G1 X50.034 Y79.987 E.01728
G1 X53.894 Y83.847 E.17408
G1 X53.894 Y84.39 E.01732
G1 X50.034 Y80.529 E.1741
G1 X50.034 Y81.072 E.01732
G1 X53.894 Y84.932 E.17408
G1 X53.894 Y85.474 E.01728
G1 X50.034 Y81.614 E.17408
G1 X50.034 Y82.157 E.01732
G1 X53.724 Y85.847 E.16641
G1 X53.182 Y85.847 E.01728
G1 X50.034 Y82.699 E.14197
G1 X50.034 Y83.241 E.01728
G1 X52.64 Y85.847 E.11753
G1 X52.097 Y85.847 E.01732
G1 X50.034 Y83.784 E.09304
G1 X50.034 Y84.326 E.01728
M73 P4 R29
G1 X51.555 Y85.847 E.06859
G1 X51.012 Y85.847 E.01732
G1 X50.034 Y84.868 E.04413
G1 X50.034 Y85.411 E.01732
G1 X50.64 Y86.017 E.02733
M204 P1000
; stop printing object DCF77 TEST Pfropfen vertikal.stl id:11 copy 0
; printing object DCF77 TEST Pfropfen vertikal.stl id:9 copy 0
G1 E-2.24 F4200
;WIPE_START
G1 F7200
G1 X50.034 Y85.411 E-.47493
G1 X50.034 Y84.868 E-.30091
G1 X50.269 Y85.103 E-.18416
;WIPE_END
G1 Z.4 F720
G1 X75.023 Y81.187 F9000
G1 Z.2 F720
G1 E3.2 F2400
M204 P800
;TYPE:Perimeter
;WIDTH:0.419999
G1 F1200
G1 X70.597 Y81.187 E.13877
G1 X70.597 Y72.761 E.26419
G1 X75.023 Y72.761 E.13877
G1 X75.023 Y81.127 E.26231
M204 P1000
G1 X75.4 Y81.564 F9000
M204 P800
;TYPE:External perimeter
G1 F1200
G1 X70.22 Y81.564 E.16241
